X: 35
T: John O'Dwyer of the Glen
M: C
L: 1/8
B: "O'Neill's 35"
N: "Slow with expression" "setting 1" "collected by Enright"
Z: "Transcribed by Norbert Paap, norbertp@bdu.uva.nl"
W:
K:Amix
~d/2e/2 \
|fefa g e2 c|dBde f e2z \
|ABcA dc AG/2F/2|GBAA A3 :|
A/2-B/2 \
|cA/2B/2 c/2d/2e/2f/2 g2 ef/2g/2|abcb ag f3/4A/4 B/4c/4d/4e/4 \
|fagf fgfe  efec|dcAA A3 d/2-e/2|
fefa g e2 c|dcde fe ~ag \
|fded cA ~AG/2F/2|GBAA A3||
